!!!OTL: BLAEH SCHAEFCHEN BLAEH
!!!ARE: Europa, Mitteleuropa, Deutschland, Erfurt, Stotternheim
!!!SCT: K0259
!!!YEM: Copyright 1995, estate of Helmut Schaffrath.
**kern
*ICvox
*Ivox
*M2/4
*k[f#]
*G:
=1
{4dd
8b
8a
=2
4g
8r}
{8dd
=3
8dd
8cc
8b
8a
=4
4g
8r}
{8g
=5
8b
8b
8b
8b
=6
4cc
8cc}
{8cc
=7
8a
8a
8a
8a
=8
4dd
8dd}
{8dd
=9
8dd
8cc
8b
8a
=10
4g
4r}
==
!!!AGN: Kinder -, Kose -, Scherz - Lied
!!!ONB: ESAC (Essen Associative Code) Database: KINDER
!!!AMT: simple duple
!!!AIN: vox
!!!EED: Helmut Schaffrath
!!!EEV: 1.0
*-
